communes/5230.svg

<?xml version="1.0" encoding="UTF-8"?>
<svg version="1.0" viewBox="0 0 603 763" xmlns="http://www.w3.org/2000/svg" xmlns:cc="http://creativecommons.org/ns#" xmlns:dc="http://purl.org/dc/elements/1.1/" xmlns:rdf="http://www.w3.org/1999/02/22-rdf-syntax-ns#" xmlns:xlink="http://www.w3.org/1999/xlink">
<metadata>
<rdf:RDF>
<cc:Work rdf:about="">
<dc:format>image/svg+xml</dc:format>
<dc:type rdf:resource="http://purl.org/dc/dcmitype/StillImage"/>
<dc:date>07-AUG-2006</dc:date>
<dc:creator>
<cc:Agent>
<dc:title>Jérôme BLUM (wagner51)</dc:title>
</cc:Agent>
</dc:creator>
<cc:license rdf:resource="http://creativecommons.org/licenses/GPL/2.0/"/>
<dc:coverage/>
<dc:description>Gabarit pour le Projet:Blasons de WIkipédia</dc:description>
<dc:subject>
<rdf:Bag>
<rdf:li>blason suisse modèle gabarit projet blasons</rdf:li>
</rdf:Bag>
</dc:subject>
<dc:language>fr</dc:language>
<dc:title>Gabrit d'un blason suisse</dc:title>
</cc:Work>
<cc:License rdf:about="http://creativecommons.org/licenses/GPL/2.0/">
<cc:permits rdf:resource="http://web.resource.org/cc/Reproduction"/>
<cc:permits rdf:resource="http://web.resource.org/cc/Distribution"/>
<cc:requires rdf:resource="http://web.resource.org/cc/Notice"/>
<cc:permits rdf:resource="http://web.resource.org/cc/DerivativeWorks"/>
<cc:requires rdf:resource="http://web.resource.org/cc/ShareAlike"/>
<cc:requires rdf:resource="http://web.resource.org/cc/SourceCode"/>
</cc:License>
</rdf:RDF>
</metadata>
<defs>
<radialGradient id="a" cx="858.04" cy="579.93" r="300" gradientTransform="matrix(1.215 1.5316e-24 1.4647e-23 1.2667 -839.19 -490.49)" gradientUnits="userSpaceOnUse">
<stop stop-color="#fff" stop-opacity=".31373" offset="0"/>
<stop stop-color="#fff" stop-opacity=".25098" offset=".19"/>
<stop stop-color="#6b6b6b" stop-opacity=".12549" offset=".6"/>
<stop stop-opacity=".12549" offset="1"/>
</radialGradient>
</defs>
<desc>Coat of Arms of Canton of Freiburg (Fribourg)</desc>
<g>
<path d="m1.5 1.5v458.87c0 166.31 134.31 301.13 300 301.13s300-134.82 300-301.13v-458.87h-600z" fill="#2b5df2"/>
<path d="m1.5 251.19v209.18c0 13.738 0.936 27.256 2.71 40.507h594.58c1.775-13.251 2.711-26.769 2.711-40.507v-209.18h-600z" fill="#fff"/>
<rect x="410.21" y="251.19" width="34.25" height="249.69" fill="#2b5df2" stroke="#000" stroke-linecap="round" stroke-linejoin="round" stroke-width="3"/>
<path d="m431.71 96.652h-21.5c-18.5 0-37 1.107-56-8.027v42.236c19-9.134 37.5-8.027 56-8.027v128.35h34.25v-131.84-8.58c0-10.518-3.75-14.116-12.75-14.116zm-21.5 511.35 17.125 49.166 17.125-49.166v-107.12h-34.25v107.12z" fill="#fff" stroke="#000" stroke-linecap="round" stroke-linejoin="round" stroke-width="3"/>
<path d="m346.71 84.75c-3.875 0-7.25 3.875-7.25 3.875v42.236s3.375 3.875 7.25 3.875 7.5-3.875 7.5-3.875v-42.236s-3.625-3.875-7.5-3.875z" fill="#fff" stroke="#000" stroke-linecap="round" stroke-linejoin="round" stroke-width="3"/>
<path d="m448.71 219.25c0 2.348-1.902 4.252-4.252 4.252h-34.25c-2.348 0-4.252-1.904-4.252-4.252v-3.746c0-2.348 1.904-4.252 4.252-4.252h34.25c2.35 0 4.252 1.904 4.252 4.252v3.746z" fill="#fff" stroke="#000" stroke-linecap="round" stroke-linejoin="round" stroke-width="3"/>
<path d="m448.71 160.25c0 2.348-1.902 4.252-4.252 4.252h-34.25c-2.348 0-4.252-1.904-4.252-4.252v-3.746c0-2.348 1.904-4.252 4.252-4.252h34.25c2.35 0 4.252 1.904 4.252 4.252v3.746z" fill="#fff" stroke="#000" stroke-linecap="round" stroke-linejoin="round" stroke-width="3"/>
<polygon points="137.04 84.75 177.92 118 182.79 125.25 182.79 251.5 177.92 244.25 137.04 211" fill="#fff" stroke="#000" stroke-linecap="round" stroke-linejoin="round" stroke-width="3"/>
<polyline points="182.79 235.72 177.92 228.47 137.04 195.22" fill="none" stroke="#000" stroke-linecap="round" stroke-linejoin="round" stroke-width="3"/>
<polyline points="182.79 219.94 177.92 212.69 137.04 179.44" fill="none" stroke="#000" stroke-linecap="round" stroke-linejoin="round" stroke-width="3"/>
<polyline points="182.79 204.16 177.92 196.91 137.04 163.66" fill="none" stroke="#000" stroke-linecap="round" stroke-linejoin="round" stroke-width="3"/>
<polyline points="182.79 188.38 177.92 181.12 137.04 147.88" fill="none" stroke="#000" stroke-linecap="round" stroke-linejoin="round" stroke-width="3"/>
<polyline points="182.79 172.59 177.92 165.34 137.04 132.09" fill="none" stroke="#000" stroke-linecap="round" stroke-linejoin="round" stroke-width="3"/>
<polyline points="182.79 156.81 177.92 149.56 137.04 116.31" fill="none" stroke="#000" stroke-linecap="round" stroke-linejoin="round" stroke-width="3"/>
<polyline points="182.79 141.03 177.92 133.78 137.04 100.53" fill="none" stroke="#000" stroke-linecap="round" stroke-linejoin="round" stroke-width="3"/>
<polygon points="244.29 84.75 203.42 118 198.54 125.25 198.54 251.5 203.42 244.25 244.29 211" fill="#fff" stroke="#000" stroke-linecap="round" stroke-linejoin="round" stroke-width="3"/>
<polyline points="198.54 235.72 203.42 228.47 244.29 195.22" fill="none" stroke="#000" stroke-linecap="round" stroke-linejoin="round" stroke-width="3"/>
<polyline points="198.54 219.94 203.42 212.69 244.29 179.44" fill="none" stroke="#000" stroke-linecap="round" stroke-linejoin="round" stroke-width="3"/>
<polyline points="198.54 204.16 203.42 196.91 244.29 163.66" fill="none" stroke="#000" stroke-linecap="round" stroke-linejoin="round" stroke-width="3"/>
<polyline points="198.54 188.38 203.42 181.12 244.29 147.88" fill="none" stroke="#000" stroke-linecap="round" stroke-linejoin="round" stroke-width="3"/>
<polyline points="198.54 172.59 203.42 165.34 244.29 132.09" fill="none" stroke="#000" stroke-linecap="round" stroke-linejoin="round" stroke-width="3"/>
<polyline points="198.54 156.81 203.42 149.56 244.29 116.31" fill="none" stroke="#000" stroke-linecap="round" stroke-linejoin="round" stroke-width="3"/>
<polyline points="198.54 141.03 203.42 133.78 244.29 100.53" fill="none" stroke="#000" stroke-linecap="round" stroke-linejoin="round" stroke-width="3"/>
<rect x="179.04" y="251.19" width="23.25" height="249.69" fill="#2b5df2" stroke="#000" stroke-linecap="round" stroke-linejoin="round" stroke-width="3"/>
<path d="m202.29 568.49v-67.617h-23.25v67.617c-8.296-5.631-26.711-15.53-53.667-15.53 0 0 49.333 41.333 65.292 104.2 15.958-62.87 65.292-104.2 65.292-104.2-26.956 0-45.371 9.899-53.667 15.53zm0-468.99c0-5.73-5.205-10.375-11.625-10.375s-11.625 4.645-11.625 10.375v151.69h23.25v-151.69z" fill="#fff" stroke="#000" stroke-linecap="round" stroke-linejoin="round" stroke-width="3"/>
<line x1="1.5" x2="601.5" y1="251.19" y2="251.19" fill="none" stroke="#000" stroke-width="3"/>
<line x1="4.21" x2="598.79" y1="500.88" y2="500.88" fill="none" stroke="#000" stroke-width="3"/>
</g>
<g>
<path d="m1.5 1.5v458.87c0 166.31 134.31 301.13 300 301.13 165.69 0 300-134.82 300-301.13v-458.87h-600z" fill="url(#a)"/>
<path d="m1.5 1.5v458.87c0 166.31 134.31 301.13 300 301.13 165.69 0 300-134.82 300-301.13v-458.87h-600z" fill="none" stroke="#000" stroke-width="3"/>
</g>
</svg>

<?xml version="1.0" encoding="UTF-8" standalone="no"?>
<svg
   xmlns:dc="http://purl.org/dc/elements/1.1/"
   xmlns:cc="http://creativecommons.org/ns#"
   xmlns:rdf="http://www.w3.org/1999/02/22-rdf-syntax-ns#"
   xmlns:svg="http://www.w3.org/2000/svg"
   xmlns="http://www.w3.org/2000/svg"
   xmlns:xlink="http://www.w3.org/1999/xlink"
   xmlns:sodipodi="http://sodipodi.sourceforge.net/DTD/sodipodi-0.dtd"
   xmlns:inkscape="http://www.inkscape.org/namespaces/inkscape"
   height="763"
   width="603"
   version="1.0"
   id="svg20"
   sodipodi:version="0.32"
   inkscape:version="0.46"
   sodipodi:docname="Vernate-coat_of_arms.svg"
   sodipodi:docbase="C:\Documents and Settings\Steve\Bureau\Blason Villages Suisse pour Wikipédia (par Delta-9)"
   inkscape:output_extension="org.inkscape.output.svg.inkscape">
  <metadata
     id="metadata31">
    <rdf:RDF>
      <cc:Work
         rdf:about="">
        <dc:format>image/svg+xml</dc:format>
        <dc:type
           rdf:resource="http://purl.org/dc/dcmitype/StillImage" />
        <dc:date>07-AUG-2006</dc:date>
        <dc:creator>
          <cc:Agent>
            <dc:title>Jérôme BLUM (wagner51)</dc:title>
          </cc:Agent>
        </dc:creator>
        <cc:license
           rdf:resource="http://creativecommons.org/licenses/GPL/2.0/" />
        <dc:coverage />
        <dc:description>Gabarit pour le Projet:Blasons de WIkipédia</dc:description>
        <dc:subject>
          <rdf:Bag>
            <rdf:li>blason suisse modèle gabarit projet blasons</rdf:li>
          </rdf:Bag>
        </dc:subject>
        <dc:language>fr</dc:language>
        <dc:title>Gabrit d'un blason suisse</dc:title>
      </cc:Work>
      <cc:License
         rdf:about="http://creativecommons.org/licenses/GPL/2.0/">
        <cc:permits
           rdf:resource="http://web.resource.org/cc/Reproduction" />
        <cc:permits
           rdf:resource="http://web.resource.org/cc/Distribution" />
        <cc:requires
           rdf:resource="http://web.resource.org/cc/Notice" />
        <cc:permits
           rdf:resource="http://web.resource.org/cc/DerivativeWorks" />
        <cc:requires
           rdf:resource="http://web.resource.org/cc/ShareAlike" />
        <cc:requires
           rdf:resource="http://web.resource.org/cc/SourceCode" />
      </cc:License>
    </rdf:RDF>
  </metadata>
  <defs
     id="defs29"><inkscape:perspective
   sodipodi:type="inkscape:persp3d"
   inkscape:vp_x="0 : 381.5 : 1"
   inkscape:vp_y="0 : 1000 : 0"
   inkscape:vp_z="603 : 381.5 : 1"
   inkscape:persp3d-origin="301.5 : 254.33333 : 1"
   id="perspective28" />
<linearGradient
   id="linearGradient2893">
  <stop
     style="stop-color:#ffffff;stop-opacity:0.3137255;"
     offset="0"
     id="stop2895" />
  <stop
     id="stop2897"
     offset="0.19"
     style="stop-color:#ffffff;stop-opacity:0.25098041;" />
  <stop
     style="stop-color:#6b6b6b;stop-opacity:0.1254902;"
     offset="0.60000002"
     id="stop2901" />
  <stop
     style="stop-color:#000000;stop-opacity:0.1254902;"
     offset="1"
     id="stop2899" />
</linearGradient>
<linearGradient
   id="linearGradient2955">
  <stop
     style="stop-color:white;stop-opacity:0;"
     offset="0"
     id="stop2965" />
  <stop
     style="stop-color:black;stop-opacity:0.64583331;"
     offset="1"
     id="stop2959" />
</linearGradient>
<radialGradient
   inkscape:collect="always"
   xlink:href="#linearGradient2893"
   id="radialGradient3236"
   gradientUnits="userSpaceOnUse"
   gradientTransform="matrix(1.215027,1.531577e-24,1.464684e-23,1.266667,-839.1924,-490.4894)"
   cx="858.04236"
   cy="579.93323"
   fx="858.04236"
   fy="579.93323"
   r="300" />
<inkscape:perspective
   id="perspective2593"
   inkscape:persp3d-origin="306 : 264 : 1"
   inkscape:vp_z="612 : 396 : 1"
   inkscape:vp_y="0 : 1000 : 0"
   inkscape:vp_x="0 : 396 : 1"
   sodipodi:type="inkscape:persp3d" />

	
	

	
	

		
		
	
		
		
	
			
			
				
			
		
			
				
			
			
			
			
		
				
				
			
					
					
					
					
					
					
					
					
				
					
					
					
					
					
					
					
					
				</defs>
  <sodipodi:namedview
     inkscape:window-height="691"
     inkscape:window-width="939"
     inkscape:pageshadow="2"
     inkscape:pageopacity="0.0"
     guidetolerance="10.0"
     gridtolerance="10.0"
     objecttolerance="10.0"
     borderopacity="1.0"
     bordercolor="#666666"
     pagecolor="#ffffff"
     id="base"
     inkscape:zoom="0.4153054"
     inkscape:cx="252.88721"
     inkscape:cy="366.93439"
     inkscape:window-x="1350"
     inkscape:window-y="121"
     inkscape:current-layer="layer1"
     showgrid="false"
     showguides="true"
     inkscape:guide-bbox="true">
    <sodipodi:guide
       orientation="horizontal"
       position="761.5"
       id="guide1885" />
    <sodipodi:guide
       orientation="vertical"
       position="1.5"
       id="guide1887" />
    <sodipodi:guide
       orientation="horizontal"
       position="1.5"
       id="guide1889" />
    <sodipodi:guide
       orientation="vertical"
       position="601.5"
       id="guide1891" />
    <sodipodi:guide
       orientation="vertical"
       position="301.50081"
       id="guide1893" />
  </sodipodi:namedview>
  <desc
     id="desc22">Coat of Arms of Canton of Freiburg (Fribourg)</desc>
  <g
     inkscape:groupmode="layer"
     id="layer1"
     inkscape:label="Fond écu"
     style="opacity:1"
     sodipodi:insensitive="true">
    <path
       d="M 1.5000009,1.5 L 1.5000009,460.368 C 1.5000009,626.679 135.814,761.5 301.5,761.5 C 467.186,761.5 601.5,626.679 601.5,460.368 L 601.5,1.5 L 1.5000009,1.5 z"
       id="path2600"
       style="opacity:1;fill:#2b5df2" />
    <path
       d="M 1.5000009,251.188 L 1.5000009,460.369 C 1.5000009,474.107 2.4360009,487.625 4.2100009,500.876 L 598.789,500.876 C 600.564,487.625 601.5,474.107 601.5,460.369 L 601.5,251.188 L 1.5000009,251.188 z"
       id="path4687"
       style="opacity:1;fill:#ffffff" />
  </g>
  <g
     inkscape:groupmode="layer"
     id="layer2"
     inkscape:label="Meubles"
     style="opacity:1"
     sodipodi:insensitive="true">
    <rect
       id="rect2528"
       height="249.688"
       width="34.25"
       y="251.188"
       x="410.20801"
       style="fill:#2b5df2;stroke:#000000;stroke-width:3;stroke-linecap:round;stroke-linejoin:round" />
    <path
       id="path2530"
       d="M 431.708,96.652 L 410.208,96.652 C 391.708,96.652 373.208,97.759 354.208,88.625 L 354.208,130.861 C 373.208,121.727 391.708,122.834 410.208,122.834 L 410.208,251.188 L 444.458,251.188 L 444.458,119.348 C 444.458,119.348 444.458,116.304 444.458,110.768 C 444.458,100.25 440.708,96.652 431.708,96.652 z M 410.208,608 L 427.333,657.166 L 444.458,608 L 444.458,500.876 L 410.208,500.876 L 410.208,608 z"
       style="fill:#ffffff;stroke:#000000;stroke-width:3;stroke-linecap:round;stroke-linejoin:round" />
    <path
       id="path2532"
       d="M 346.708,84.75 C 342.833,84.75 339.458,88.625 339.458,88.625 L 339.458,130.861 C 339.458,130.861 342.833,134.736 346.708,134.736 C 350.583,134.736 354.208,130.861 354.208,130.861 L 354.208,88.625 C 354.208,88.625 350.583,84.75 346.708,84.75 z"
       style="fill:#ffffff;stroke:#000000;stroke-width:3;stroke-linecap:round;stroke-linejoin:round" />
    <path
       id="path2534"
       d="M 448.71,219.248 C 448.71,221.596 446.808,223.5 444.458,223.5 L 410.208,223.5 C 407.86,223.5 405.956,221.596 405.956,219.248 L 405.956,215.502 C 405.956,213.154 407.86,211.25 410.208,211.25 L 444.458,211.25 C 446.808,211.25 448.71,213.154 448.71,215.502 L 448.71,219.248 z"
       style="fill:#ffffff;stroke:#000000;stroke-width:3;stroke-linecap:round;stroke-linejoin:round" />
    <path
       id="path2536"
       d="M 448.71,160.248 C 448.71,162.596 446.808,164.5 444.458,164.5 L 410.208,164.5 C 407.86,164.5 405.956,162.596 405.956,160.248 L 405.956,156.502 C 405.956,154.154 407.86,152.25 410.208,152.25 L 444.458,152.25 C 446.808,152.25 448.71,154.154 448.71,156.502 L 448.71,160.248 z"
       style="fill:#ffffff;stroke:#000000;stroke-width:3;stroke-linecap:round;stroke-linejoin:round" />
    <polygon
       id="polygon2544"
       points="137.042,84.75 177.917,118 182.792,125.25 182.792,251.5 177.917,244.25 137.042,211 137.042,84.75 "
       style="fill:#ffffff;stroke:#000000;stroke-width:3;stroke-linecap:round;stroke-linejoin:round" />
    <polyline
       id="polyline2546"
       points="       182.792,235.719 177.917,228.469 137.042,195.219      "
       style="fill:none;stroke:#000000;stroke-width:3;stroke-linecap:round;stroke-linejoin:round" />
    <polyline
       id="polyline2548"
       points="       182.792,219.938 177.917,212.688 137.042,179.438      "
       style="fill:none;stroke:#000000;stroke-width:3;stroke-linecap:round;stroke-linejoin:round" />
    <polyline
       id="polyline2550"
       points="       182.792,204.156 177.917,196.906 137.042,163.656      "
       style="fill:none;stroke:#000000;stroke-width:3;stroke-linecap:round;stroke-linejoin:round" />
    <polyline
       id="polyline2552"
       points="       182.792,188.375 177.917,181.125 137.042,147.875      "
       style="fill:none;stroke:#000000;stroke-width:3;stroke-linecap:round;stroke-linejoin:round" />
    <polyline
       id="polyline2554"
       points="       182.792,172.594 177.917,165.344 137.042,132.094      "
       style="fill:none;stroke:#000000;stroke-width:3;stroke-linecap:round;stroke-linejoin:round" />
    <polyline
       id="polyline2556"
       points="       182.792,156.813 177.917,149.563 137.042,116.313      "
       style="fill:none;stroke:#000000;stroke-width:3;stroke-linecap:round;stroke-linejoin:round" />
    <polyline
       id="polyline2558"
       points="       182.792,141.031 177.917,133.781 137.042,100.531      "
       style="fill:none;stroke:#000000;stroke-width:3;stroke-linecap:round;stroke-linejoin:round" />
    <polygon
       id="polygon2562"
       points="244.292,84.75 203.417,118 198.542,125.25 198.542,251.5 203.417,244.25 244.292,211 244.292,84.75 "
       style="fill:#ffffff;stroke:#000000;stroke-width:3;stroke-linecap:round;stroke-linejoin:round" />
    <polyline
       id="polyline2564"
       points="       198.542,235.719 203.417,228.469 244.292,195.219      "
       style="fill:none;stroke:#000000;stroke-width:3;stroke-linecap:round;stroke-linejoin:round" />
    <polyline
       id="polyline2566"
       points="       198.542,219.938 203.417,212.688 244.292,179.438      "
       style="fill:none;stroke:#000000;stroke-width:3;stroke-linecap:round;stroke-linejoin:round" />
    <polyline
       id="polyline2568"
       points="       198.542,204.156 203.417,196.906 244.292,163.656      "
       style="fill:none;stroke:#000000;stroke-width:3;stroke-linecap:round;stroke-linejoin:round" />
    <polyline
       id="polyline2570"
       points="       198.542,188.375 203.417,181.125 244.292,147.875      "
       style="fill:none;stroke:#000000;stroke-width:3;stroke-linecap:round;stroke-linejoin:round" />
    <polyline
       id="polyline2572"
       points="       198.542,172.594 203.417,165.344 244.292,132.094      "
       style="fill:none;stroke:#000000;stroke-width:3;stroke-linecap:round;stroke-linejoin:round" />
    <polyline
       id="polyline2574"
       points="       198.542,156.813 203.417,149.563 244.292,116.313      "
       style="fill:none;stroke:#000000;stroke-width:3;stroke-linecap:round;stroke-linejoin:round" />
    <polyline
       id="polyline2576"
       points="       198.542,141.031 203.417,133.781 244.292,100.531      "
       style="fill:none;stroke:#000000;stroke-width:3;stroke-linecap:round;stroke-linejoin:round" />
    <rect
       id="rect2578"
       height="249.688"
       width="23.25"
       y="251.188"
       x="179.04201"
       style="fill:#2b5df2;stroke:#000000;stroke-width:3;stroke-linecap:round;stroke-linejoin:round" />
    <path
       id="path2580"
       d="M 202.292,568.493 L 202.292,500.876 L 179.042,500.876 L 179.042,568.493 C 170.746,562.862 152.331,552.963 125.375,552.963 C 125.375,552.963 174.708,594.296 190.667,657.166 C 206.625,594.296 255.959,552.963 255.959,552.963 C 229.003,552.963 210.588,562.862 202.292,568.493 z M 202.292,99.5 C 202.292,93.77 197.087,89.125 190.667,89.125 C 184.247,89.125 179.042,93.77 179.042,99.5 L 179.042,251.188 L 202.292,251.188 L 202.292,99.5 z"
       style="fill:#ffffff;stroke:#000000;stroke-width:3;stroke-linecap:round;stroke-linejoin:round" />
    <line
       style="fill:none;stroke:#000000;stroke-width:3"
       x1="1.500001"
       y1="251.188"
       x2="601.5"
       y2="251.188"
       id="line2584" />
    <line
       style="fill:none;stroke:#000000;stroke-width:3"
       x1="4.210001"
       y1="500.87601"
       x2="598.789"
       y2="500.87601"
       id="line2586" />
  </g>
  <g
     inkscape:groupmode="layer"
     id="layer3"
     inkscape:label="Reflet final"
     style="display:inline"
     sodipodi:insensitive="true">
    <path
       style="fill:url(#radialGradient3236);fill-opacity:1"
       d="M 1.5,1.5 L 1.5,460.3679 C 1.5,626.67854 135.81454,761.5 301.49993,761.5 C 467.1854,761.5 601.5,626.67854 601.5,460.3679 L 601.5,1.5 L 1.5,1.5 z "
       id="path2346" />
  </g>
  <g
     inkscape:groupmode="layer"
     id="layer4"
     inkscape:label="Contour final"
     style="display:inline"
     sodipodi:insensitive="true">
    <path
       style="fill:none;fill-opacity:1;stroke:#000000;stroke-width:3;stroke-miterlimit:4;stroke-dasharray:none;stroke-opacity:1"
       d="M 1.5,1.5 L 1.5,460.36794 C 1.5,626.67854 135.81454,761.5 301.49993,761.5 C 467.1854,761.5 601.5,626.67854 601.5,460.36794 L 601.5,1.5 L 1.5,1.5 z "
       id="path3239" />
  </g>
</svg>
